src/assets/images/icons/twitter.svg

<svg width="24" height="25" viewBox="0 0 24 25" fill="none" xmlns="http://www.w3.org/2000/svg">
<path d="M24 4.70918C23.1 5.10918 22.2 5.40918 21.2 5.50918C22.2 4.90918 23 3.90918 23.4 2.80918C22.4 3.40918 21.4 3.80918 20.3 4.00918C19.4 3.00918 18.1 2.40918 16.7 2.40918C14 2.40918 11.8 4.60918 11.8 7.30918C11.8 7.70918 11.8 8.10918 11.9 8.40918C7.7 8.20918 4.1 6.20918 1.7 3.20918C1.2 4.00918 1 4.80918 1 5.70918C1 7.40918 1.9 8.90918 3.2 9.80918C2.4 9.80918 1.6 9.60918 1 9.20918C1 9.20918 1 9.20918 1 9.30918C1 11.7092 2.7 13.7092 4.9 14.1092C4.5 14.2092 4.1 14.3092 3.6 14.3092C3.3 14.3092 3 14.3092 2.7 14.2092C3.3 16.2092 5.1 17.6092 7.3 17.6092C5.6 18.9092 3.5 19.7092 1.2 19.7092C0.8 19.7092 0.4 19.7092 0 19.6092C2.2 21.0092 4.8 21.8092 7.5 21.8092C16.6 21.8092 21.5 14.3092 21.5 7.80918C21.5 7.60918 21.5 7.40918 21.5 7.20918C22.5 6.50918 23.3 5.60918 24 4.70918Z" fill="#98A2B3"/>
</svg>

<svg width="24" height="25" fill="none" xmlns="http://www.w3.org/2000/svg"><path d="M24 4.71c-.9.4-1.8.7-2.8.8 1-.6 1.8-1.6 2.2-2.7-1 .6-2 1-3.1 1.2-.9-1-2.2-1.6-3.6-1.6-2.7 0-4.9 2.2-4.9 4.9 0 .4 0 .8.1 1.1-4.2-.2-7.8-2.2-10.2-5.2-.5.8-.7 1.6-.7 2.5 0 1.7.9 3.2 2.2 4.1-.8 0-1.6-.2-2.2-.6v.1c0 2.4 1.7 4.4 3.9 4.8-.4.1-.8.2-1.3.2-.3 0-.6 0-.9-.1.6 2 2.4 3.4 4.6 3.4-1.7 1.3-3.8 2.1-6.1 2.1-.4 0-.8 0-1.2-.1 2.2 1.4 4.8 2.2 7.5 2.2 9.1 0 14-7.5 14-14v-.6c1-.7 1.8-1.6 2.5-2.5Z" fill="#98A2B3"/></svg>
